!!!!SEGMENT: pl-sa--l-1643--010_anonim--diffusa-est-gratia-in-labiis.krn
!!!cenid: 16xx:1365
!!!COM: Anonim
!!!COM-rismID: pe30004985
!!!CDT:
!!!CNT:
!!!OTL: Diffusa est gratia in labiis
!!!PDT:
!!!AGN: Sacred
!!!SMS-siglum: PL-SA
!!!SMS-shelfmark: L 1643
!!!SMS-shelfwork: 010 W
!!!SMS-variant:
!!!SMS-altvar:
!!!NIFC-rismSourceID: 1001063744
!!!NIFC-rismChildID: 1001063744
!!!NIFC-islandoraID:
!!!URL-pdf-islandora:
!!!URL-scan:
!!!ONB-nifc: UWAGA: 8 ksiąg. Primi chori: 1mus Cantus (brak), C 2dus (31), C 3tius (brak), Bassus (brak); Secondi chori: Primus Cantus (brak), C 2dus (brak), Altus (brak), Bassus (92-93). UWAGA: metrum 2/2
!!!AIN: 8 empty
!!!key:
**kern	**text	**kern	**kern	**kern	**kern	**kern	**kern	**text	**kern
*group1	*	*group1	*group1	*group1	*group1	*group1	*group1	*	*group1
*part8	*part8	*part7	*part6	*part5	*part4	*part3	*part2	*part2	*part1
*staff8	*staff8	*staff7	*staff6	*staff5	*staff4	*staff3	*staff2	*staff2	*staff1
*Iempty	*	*Iempty	*Iempty	*Iempty	*Iempty	*Iempty	*Iempty	*	*Iempty
*I"Baſsus 2di Chori	*	*I"Altus secundi Chori.	*I"Cantus 2dus Secundi Chori.	*I"Primus Cantus 2di Chori	*I"Bassus Primi Chori.	*I"Cantus 3tius Primi Chori	*I"Cantus 2dus Primi Chori.	*	*I"1m(us) Cantus Primi Chori
*I'[B 2 Coro 2]	*	*I'[A coro 2]	*I'[C 2 Coro 2]	*I'[C 1 Coro 2]	*I'[B Coro 1]	*I'[C 3 Coro 1]	*I'[C 2 Coro 1]	*	*I'[C 1 Coro 1]
*clefC3	*	*clefG2	*clefG2	*clefG2	*clefF4	*clefG2	*clefC1	*	*clefG2
*k[b-]	*	*k[b-]	*k[b-]	*k[b-]	*k[b-]	*k[b-]	*k[b-]	*	*k[b-]
*B-:	*	*B-:	*B-:	*B-:	*B-:	*B-:	*B-:	*	*B-:
*M2/2	*	*M2/2	*M2/2	*M2/2	*M2/2	*M2/2	*M2/2	*	*M2/2
*met(C|)	*	*met(C|)	*met(C|)	*met(C|)	*met(C|)	*met(C|)	*met(C|)	*	*met(C|)
=1-	=1-	=1-	=1-	=1-	=1-	=1-	=1-	=1-	=1-
!	!	!LO:TX:t=P:problem=brak źródła	!LO:TX:t=P:problem=brak źródła	!LO:TX:t=P:problem=brak źródła	!LO:TX:t=P:problem=brak źródła	!LO:TX:t=P:problem=brak źródła	!	!	!LO:TX:t=P:problem=brak źródła
00r	.	1ryy	1ryy	1ryy	1ryy	1ryy	1.cc	Dif-	1ryy
=2-	=2-	=2-	=2-	=2-	=2-	=2-	=2-	=2-	=2-
.	.	1ryy	1ryy	1ryy	1ryy	1ryy	.	fu	1ryy
!	!	!	!	!	!	!	!LO:N:vis=4	!	!
!`	!	!	!	!	!	!	!LO:TX:t=P:problem=w źródle w tym miejscu jest semiminima (4), ale powinna być minima (2), aby zgadzał się rytm w dalszym przebiegu utworu	!	!
.	.	.	.	.	.	.	2b-\	-fu-	.
=3-	=3-	=3-	=3-	=3-	=3-	=3-	=3-	=3-	=3-
.	.	1ryy	1ryy	1ryy	1ryy	1ryy	2a\	-sa	1ryy
.	.	.	.	.	.	.	2cc\	eſt	.
=4-	=4-	=4-	=4-	=4-	=4-	=4-	=4-	=4-	=4-
.	.	1ryy	1ryy	1ryy	1ryy	1ryy	2.b-\	gra--	1ryy
.	.	.	.	.	.	.	4b-\	-ti	.
=5-	=5-	=5-	=5-	=5-	=5-	=5-	=5-	=5-	=5-
2.f\	Dif-	1ryy	1ryy	1ryy	1ryy	1ryy	1a	-a	1ryy
4f\	-fu-	.	.	.	.	.	.	.	.
=6-	=6-	=6-	=6-	=6-	=6-	=6-	=6-	=6-	=6-
2f\	-sa	1ryy	1ryy	1ryy	1ryy	1ryy	00r	.	1ryy
2f\	eſt	.	.	.	.	.	.	.	.
=7-	=7-	=7-	=7-	=7-	=7-	=7-	=7-	=7-	=7-
2.B-/	gra-	1ryy	1ryy	1ryy	1ryy	1ryy	.	.	1ryy
4B-/	-ti-	.	.	.	.	.	.	.	.
=8-	=8-	=8-	=8-	=8-	=8-	=8-	=8-	=8-	=8-
1f	-a	1ryy	1ryy	1ryy	1ryy	1ryy	.	.	1ryy
=9-	=9-	=9-	=9-	=9-	=9-	=9-	=9-	=9-	=9-
0r	.	1ryy	1ryy	1ryy	1ryy	1ryy	.	.	1ryy
=10-	=10-	=10-	=10-	=10-	=10-	=10-	=10-	=10-	=10-
.	.	1ryy	1ryy	1ryy	1ryy	1ryy	2.dd\	dif-	1ryy
.	.	.	.	.	.	.	4cc\	-fu-	.
=11-	=11-	=11-	=11-	=11-	=11-	=11-	=11-	=11-	=11-
1r	.	1ryy	1ryy	1ryy	1ryy	1ryy	2b-\	-sa	1ryy
.	.	.	.	.	.	.	2dd\	est	.
=12-	=12-	=12-	=12-	=12-	=12-	=12-	=12-	=12-	=12-
2r	.	1ryy	1ryy	1ryy	1ryy	1ryy	2.cc\	gra-	1ryy
2f\	in	.	.	.	.	.	.	.	.
.	.	.	.	.	.	.	4cc\	-ti-	.
=13-	=13-	=13-	=13-	=13-	=13-	=13-	=13-	=13-	=13-
2f\	la-	1ryy	1ryy	1ryy	1ryy	1ryy	2b-\	-a	1ryy
4B-/	-bi-	.	.	.	.	.	2r	.	.
4F/	-is	.	.	.	.	.	.	.	.
=14-	=14-	=14-	=14-	=14-	=14-	=14-	=14-	=14-	=14-
1c	tu-	1ryy	1ryy	1ryy	1ryy	1ryy	0r	.	1ryy
=15-	=15-	=15-	=15-	=15-	=15-	=15-	=15-	=15-	=15-
2F/	-is	1ryy	1ryy	1ryy	1ryy	1ryy	.	.	1ryy
2r	.	.	.	.	.	.	.	.	.
=16-	=16-	=16-	=16-	=16-	=16-	=16-	=16-	=16-	=16-
0r	.	1ryy	1ryy	1ryy	1ryy	1ryy	2r	.	1ryy
.	.	.	.	.	.	.	2dd\	in	.
=17-	=17-	=17-	=17-	=17-	=17-	=17-	=17-	=17-	=17-
.	.	1ryy	1ryy	1ryy	1ryy	1ryy	2dd\	la-	1ryy
.	.	.	.	.	.	.	4cc\	-bi-	.
.	.	.	.	.	.	.	4b-\	-js	.
=18-	=18-	=18-	=18-	=18-	=18-	=18-	=18-	=18-	=18-
2r	.	1ryy	1ryy	1ryy	1ryy	1ryy	1a	tu-	1ryy
2B-/	in	.	.	.	.	.	.	.	.
=19-	=19-	=19-	=19-	=19-	=19-	=19-	=19-	=19-	=19-
2B-/	la-	1ryy	1ryy	1ryy	1ryy	1ryy	2b-\	-is	1ryy
4F/	-bi-	.	.	.	.	.	2r	.	.
4G/	-is	.	.	.	.	.	.	.	.
=20-	=20-	=20-	=20-	=20-	=20-	=20-	=20-	=20-	=20-
1d	tu-	1ryy	1ryy	1ryy	1ryy	1ryy	0r	.	1ryy
=21-	=21-	=21-	=21-	=21-	=21-	=21-	=21-	=21-	=21-
2G/	-is	1ryy	1ryy	1ryy	1ryy	1ryy	.	.	1ryy
2r	.	.	.	.	.	.	.	.	.
=22-	=22-	=22-	=22-	=22-	=22-	=22-	=22-	=22-	=22-
2r	.	1ryy	1ryy	1ryy	1ryy	1ryy	2r	.	1ryy
4r	.	.	.	.	.	.	2a\	pro-	.
4B-/	Pro-	.	.	.	.	.	.	.	.
=23-	=23-	=23-	=23-	=23-	=23-	=23-	=23-	=23-	=23-
4.F/	-pte-	1ryy	1ryy	1ryy	1ryy	1ryy	4.b-\	-pte-	1ryy
8F/	-re-	.	.	.	.	.	8b-\	-re-	.
2F/	-a	.	.	.	.	.	2b-\	-a,	.
*custos:Bn	*	*	*	*	*	*	*custos:cc	*	*
!	!	!	!	!	!	!	!	!LO:LB:g=original	!
=24-	=24-	=24-	=24-	=24-	=24-	=24-	=24-	=24-	=24-
2r	.	1ryy	1ryy	1ryy	1ryy	1ryy	2r	.	1ryy
4r	.	.	.	.	.	.	4r	.	.
4B-/	Pro-	.	.	.	.	.	4cc\	pro-	.
=25-	=25-	=25-	=25-	=25-	=25-	=25-	=25-	=25-	=25-
4.G/	-pte-	1ryy	1ryy	1ryy	1ryy	1ryy	4.dd\	-pte-	1ryy
8G/	-re-	.	.	.	.	.	8dd\	-re-	.
2G/	-a	.	.	.	.	.	2dd\	-a,	.
=26-	=26-	=26-	=26-	=26-	=26-	=26-	=26-	=26-	=26-
2r	.	1ryy	1ryy	1ryy	1ryy	1ryy	2r	.	1ryy
4r	.	.	.	.	.	.	4r	.	.
4c/	pro-	.	.	.	.	.	4dd\	pro-	.
=27-	=27-	=27-	=27-	=27-	=27-	=27-	=27-	=27-	=27-
4.F/	-pte-	1ryy	1ryy	1ryy	1ryy	1ryy	4.cc\	-pte-	1ryy
8F/	-re-	.	.	.	.	.	8cc\	-re-	.
2F/	-a	.	.	.	.	.	2cc\	-a,	.
=28-	=28-	=28-	=28-	=28-	=28-	=28-	=28-	=28-	=28-
1r	.	1ryy	1ryy	1ryy	1ryy	1ryy	0r	.	1ryy
=29-	=29-	=29-	=29-	=29-	=29-	=29-	=29-	=29-	=29-
1r	.	1ryy	1ryy	1ryy	1ryy	1ryy	.	.	1ryy
=30-	=30-	=30-	=30-	=30-	=30-	=30-	=30-	=30-	=30-
1r	.	1ryy	1ryy	1ryy	1ryy	1ryy	1r	.	1ryy
=31-	=31-	=31-	=31-	=31-	=31-	=31-	=31-	=31-	=31-
2r	.	1ryy	1ryy	1ryy	1ryy	1ryy	2r	.	1ryy
2c/	pro-	.	.	.	.	.	2cc\	pro-	.
=32-	=32-	=32-	=32-	=32-	=32-	=32-	=32-	=32-	=32-
4.f\	-pte-	1ryy	1ryy	1ryy	1ryy	1ryy	4.cc\	-pte-	1ryy
8f\	-re-	.	.	.	.	.	8cc\	-re-	.
2f\	-a	.	.	.	.	.	2cc\	-a,	.
=33-	=33-	=33-	=33-	=33-	=33-	=33-	=33-	=33-	=33-
1r	.	1ryy	1ryy	1ryy	1ryy	1ryy	0r	.	1ryy
=34-	=34-	=34-	=34-	=34-	=34-	=34-	=34-	=34-	=34-
1r	.	1ryy	1ryy	1ryy	1ryy	1ryy	.	.	1ryy
=35-	=35-	=35-	=35-	=35-	=35-	=35-	=35-	=35-	=35-
1r	.	1ryy	1ryy	1ryy	1ryy	1ryy	1r	.	1ryy
=36-	=36-	=36-	=36-	=36-	=36-	=36-	=36-	=36-	=36-
2r	.	1ryy	1ryy	1ryy	1ryy	1ryy	2r	.	1ryy
4A/	be-	.	.	.	.	.	4dd\	be-	.
4B-/	-ne-	.	.	.	.	.	4dd\	-ne-	.
=37-	=37-	=37-	=37-	=37-	=37-	=37-	=37-	=37-	=37-
2B-/	-di-	1ryy	1ryy	1ryy	1ryy	1ryy	2dd\	-di-	1ryy
4e-X\	-xit	.	.	.	.	.	4b-\	-xit	.
4B-/	te	.	.	.	.	.	4b-\	te	.
=38-	=38-	=38-	=38-	=38-	=38-	=38-	=38-	=38-	=38-
1f	De-	1ryy	1ryy	1ryy	1ryy	1ryy	1cc	de-	1ryy
=39-	=39-	=39-	=39-	=39-	=39-	=39-	=39-	=39-	=39-
2B-/	-us	1ryy	1ryy	1ryy	1ryy	1ryy	2dd\	-us,	1ryy
2r	.	.	.	.	.	.	2r	.	.
=40-	=40-	=40-	=40-	=40-	=40-	=40-	=40-	=40-	=40-
1r	.	1ryy	1ryy	1ryy	1ryy	1ryy	0r	.	1ryy
=41-	=41-	=41-	=41-	=41-	=41-	=41-	=41-	=41-	=41-
1r	.	1ryy	1ryy	1ryy	1ryy	1ryy	.	.	1ryy
=42-	=42-	=42-	=42-	=42-	=42-	=42-	=42-	=42-	=42-
2r	.	1ryy	1ryy	1ryy	1ryy	1ryy	2r	.	1ryy
4B-/	be-	.	.	.	.	.	4dd\	be-	.
4B-/	-ne-	.	.	.	.	.	4dd\	-ne-	.
=43-	=43-	=43-	=43-	=43-	=43-	=43-	=43-	=43-	=43-
*custos:c	*	*	*	*	*	*	*	*	*
!	!	!	!	!	!	!	!LO:TX:t=P:problem=# below	!	!
2f\	-di-	1ryy	1ryy	1ryy	1ryy	1ryy	2cc#X\	-di-	1ryy
4c/	-xit	.	.	.	.	.	4cc#\	-xit	.
4g\	te	.	.	.	.	.	4b-\	te	.
*	*	*	*	*	*	*	*custos:a	*	*
!	!	!	!	!	!	!	!LO:LB:g=original	!	!
=44-	=44-	=44-	=44-	=44-	=44-	=44-	=44-	=44-	=44-
1d	De-	1ryy	1ryy	1ryy	1ryy	1ryy	1a	de-	1ryy
=45-	=45-	=45-	=45-	=45-	=45-	=45-	=45-	=45-	=45-
2g\	-us	1ryy	1ryy	1ryy	1ryy	1ryy	2g/	-us	1ryy
2r	.	.	.	.	.	.	2r	.	.
=46-	=46-	=46-	=46-	=46-	=46-	=46-	=46-	=46-	=46-
1r	.	1ryy	1ryy	1ryy	1ryy	1ryy	0r	.	1ryy
=47-	=47-	=47-	=47-	=47-	=47-	=47-	=47-	=47-	=47-
1r	.	1ryy	1ryy	1ryy	1ryy	1ryy	.	.	1ryy
=48-	=48-	=48-	=48-	=48-	=48-	=48-	=48-	=48-	=48-
2r	.	1ryy	1ryy	1ryy	1ryy	1ryy	2r	.	1ryy
4B-/	be-	.	.	.	.	.	4b-\	be-	.
4d\	-ne-	.	.	.	.	.	4b-\	-ne-	.
=49-	=49-	=49-	=49-	=49-	=49-	=49-	=49-	=49-	=49-
2g\	-di-	1ryy	1ryy	1ryy	1ryy	1ryy	2dd\	-di-	1ryy
4c/	-xit	.	.	.	.	.	4ccny\	-xi	.
4g\	te	.	.	.	.	.	4dd\	te	.
=50-	=50-	=50-	=50-	=50-	=50-	=50-	=50-	=50-	=50-
4c/	De-	1ryy	1ryy	1ryy	1ryy	1ryy	1cc	de-	1ryy
4d\	.	.	.	.	.	.	.	.	.
4e\	.	.	.	.	.	.	.	.	.
4f\	.	.	.	.	.	.	.	.	.
=51-	=51-	=51-	=51-	=51-	=51-	=51-	=51-	=51-	=51-
2g\	-us	1ryy	1ryy	1ryy	1ryy	1ryy	2dd\	-us	1ryy
2r	.	.	.	.	.	.	2r	.	.
=52-	=52-	=52-	=52-	=52-	=52-	=52-	=52-	=52-	=52-
1r	.	1ryy	1ryy	1ryy	1ryy	1ryy	0r	.	1ryy
=53-	=53-	=53-	=53-	=53-	=53-	=53-	=53-	=53-	=53-
1r	.	1ryy	1ryy	1ryy	1ryy	1ryy	.	.	1ryy
=54-	=54-	=54-	=54-	=54-	=54-	=54-	=54-	=54-	=54-
2r	.	1ryy	1ryy	1ryy	1ryy	1ryy	2r	.	1ryy
1d\	in	.	.	.	.	.	2.b-\	in	.
=55-	=55-	=55-	=55-	=55-	=55-	=55-	=55-	=55-	=55-
.	.	1ryy	1ryy	1ryy	1ryy	1ryy	.	.	1ryy
.	.	.	.	.	.	.	4cc\	ae-	.
2g\	ae-	.	.	.	.	.	2dd\	-ter-	.
=56-	=56-	=56-	=56-	=56-	=56-	=56-	=56-	=56-	=56-
1d	-ter-	1ryy	1ryy	1ryy	1ryy	1ryy	1dd	-num	1ryy
=57-	=57-	=57-	=57-	=57-	=57-	=57-	=57-	=57-	=57-
2g\	-num	1ryy	1ryy	1ryy	1ryy	1ryy	2dd\	.	1ryy
2r	.	.	.	.	.	.	4b-\	et	.
.	.	.	.	.	.	.	4b-\	in	.
=58-	=58-	=58-	=58-	=58-	=58-	=58-	=58-	=58-	=58-
1r	.	1ryy	1ryy	1ryy	1ryy	1ryy	2cc\	se-	1ryy
.	.	.	.	.	.	.	4a\	-cu-	.
.	.	.	.	.	.	.	4cc\	-lum	.
=59-	=59-	=59-	=59-	=59-	=59-	=59-	=59-	=59-	=59-
2r	.	1ryy	1ryy	1ryy	1ryy	1ryy	2.b-\	se-	1ryy
4B-/	et	.	.	.	.	.	.	.	.
4B-/	in	.	.	.	.	.	4b-\	-cu-	.
=60-	=60-	=60-	=60-	=60-	=60-	=60-	=60-	=60-	=60-
2A/	sae-	1ryy	1ryy	1ryy	1ryy	1ryy	2cc\	-li	1ryy
4A/	-cu-	.	.	.	.	.	2r	.	.
4A/	-lum	.	.	.	.	.	.	.	.
=61-	=61-	=61-	=61-	=61-	=61-	=61-	=61-	=61-	=61-
*custos:Bn	*	*	*	*	*	*	*	*	*
2.B-/	sae-	1ryy	1ryy	1ryy	1ryy	1ryy	2r	.	1ryy
.	.	.	.	.	.	.	4dd\	et	.
4B-/	-cu-	.	.	.	.	.	4dd\	in	.
=62-	=62-	=62-	=62-	=62-	=62-	=62-	=62-	=62-	=62-
2F/	-li	1ryy	1ryy	1ryy	1ryy	1ryy	2a\	se-	1ryy
*	*	*	*	*	*	*	*custos:a	*	*
!	!	!	!	!	!	!	!LO:LB:g=original	!	!
2r	.	.	.	.	.	.	4a\	-cu-	.
.	.	.	.	.	.	.	4cc\	-lum	.
=63-	=63-	=63-	=63-	=63-	=63-	=63-	=63-	=63-	=63-
2r	.	1ryy	1ryy	1ryy	1ryy	1ryy	2.b-\	se-	1ryy
4B-/	et	.	.	.	.	.	.	.	.
4B-/	in	.	.	.	.	.	4b-\	-cu-	.
=64-	=64-	=64-	=64-	=64-	=64-	=64-	=64-	=64-	=64-
2A/	sae-	1ryy	1ryy	1ryy	1ryy	1ryy	2cc\	-li	1ryy
4A/	-cu-	.	.	.	.	.	2r	.	.
4A/	-lum	.	.	.	.	.	.	.	.
=65-	=65-	=65-	=65-	=65-	=65-	=65-	=65-	=65-	=65-
2.B-/	sae-	1ryy	1ryy	1ryy	1ryy	1ryy	1r	.	1ryy
4B-/	-cu-	.	.	.	.	.	.	.	.
=66-	=66-	=66-	=66-	=66-	=66-	=66-	=66-	=66-	=66-
2F/	-li	1ryy	1ryy	1ryy	1ryy	1ryy	2r	.	1ryy
2f\	in	.	.	.	.	.	2cc\	in	.
=67-	=67-	=67-	=67-	=67-	=67-	=67-	=67-	=67-	=67-
2c/	sae-	1ryy	1ryy	1ryy	1ryy	1ryy	2g/	se-	1ryy
4f\	-cu-	.	.	.	.	.	4a\	-cu-	.
4f\	-lum	.	.	.	.	.	4a\	-lum	.
=68-	=68-	=68-	=68-	=68-	=68-	=68-	=68-	=68-	=68-
1.B-	sae-	1ryy	1ryy	1ryy	1ryy	1ryy	1.b-	sae-	1ryy
=69-	=69-	=69-	=69-	=69-	=69-	=69-	=69-	=69-	=69-
.	.	1ryy	1ryy	1ryy	1ryy	1ryy	.	.	1ryy
!LO:TX:t=P:problem=kreska pseudotaktowa przerywana	!	!	!	!	!	!	!LO:TX:t=P:problem=kreska pseudotaktowa przerywana	!	!
2B-/	-cu-	.	.	.	.	.	2b-\	-cu-	.
=70-	=70-	=70-	=70-	=70-	=70-	=70-	=70-	=70-	=70-
0f;;	-li	0ryy	0ryy	0ryy	0ryy	0ryy	0a;;	-li	0ryy
=71-	=71-	=71-	=71-	=71-	=71-	=71-	=71-	=71-	=71-
=-	=-	=-	=-	=-	=-	=-	=-	=-	=-
*-	*-	*-	*-	*-	*-	*-	*-	*-	*-
!!!system-decoration: [(s1,s2,s3,s4,s5,s6,s7,s8)]
!!!RDF**kern: > = above
!!!RDF**kern: < = below
!!!ENC: Anastazja Marusiak
!!!END: 2021-09-27
!!!EED: Jędrzej Mróz
!!!ESR: 2021-10-08
!!!YEC: Copyright 2022 Narodowy Instytut Fryderyka Chopina (https://polishscores.org)
!!!YEM: License CC-BY-4.0 (https://creativecommons.org/licenses/by/4.0)
